frontend/public/svg/interface/user-remove.svg

<svg width="157" height="151" viewBox="0 0 157 151" fill="none" xmlns="http://www.w3.org/2000/svg">
<g clip-path="url(#clip0)">
<path d="M111.851 80.0366C116.101 79.8137 120.103 79.0917 123.992 79.489C141.564 81.2841 154.688 94.7186 156.473 112.327C158.08 128.174 150.198 141.213 135.377 146.976C124.335 151.27 113.197 151.95 102.067 147.243C94.334 143.972 88.3263 138.836 84.8898 130.993C84.7183 130.604 84.4762 130.241 84.2192 129.78C80.9633 129.955 77.7721 130.134 74.5802 130.298C57.0014 131.194 39.4245 132.145 21.8411 132.941C17.0925 133.156 12.3226 132.925 7.5643 132.829C6.46016 132.799 5.36531 132.617 4.31088 132.288C1.19346 131.327 0.157746 129.17 1.25104 126.123C5.94534 112.821 13.1681 100.555 22.5202 90.0026C33.9309 77.1708 47.8536 69.0784 65.1126 67.3066C76.9202 66.0947 88.2597 68.0797 99.1609 72.6856C101.529 73.6078 103.839 74.6758 106.075 75.8838C108.073 77.1637 110.001 78.5499 111.851 80.0366ZM103.095 84.6534C93.8938 80.5175 84.9973 77.1073 75.1453 76.6524C61.4379 76.0192 49.0343 79.4715 38.1991 87.9236C26.5548 97.0069 18.0246 108.674 11.1276 121.617C10.829 122.281 10.5753 122.964 10.3683 123.662C16.6238 124.229 78.9359 119.974 82.8715 118.721C82.9693 118.26 83.1155 117.733 83.188 117.198C84.1545 110.606 86.3294 104.25 89.6041 98.4495C90.7032 96.5332 92.0723 94.7853 93.6692 93.2598C96.5658 90.4057 99.669 87.7564 103.095 84.6534ZM118.462 138.891C123.792 138.857 129.053 137.678 133.889 135.432C137.559 133.798 140.634 131.066 142.688 127.609C147.446 119.564 146.531 106.553 140.509 99.4009C135.711 93.7024 129.716 89.7661 122.152 89.1426C113.377 88.42 105.92 91.5281 100.852 98.8027C95.7748 106.09 94.5508 114.526 95.4836 123.249C95.9186 126.818 97.6967 130.086 100.456 132.387C105.589 136.957 111.69 138.853 118.462 138.891Z" fill="black"/>
<path d="M67.1996 59.5951C59.6745 59.286 52.3037 57.7227 45.8249 53.1201C38.5064 47.9213 32.7286 38.2483 37.2649 26.1696C38.408 23.0565 39.9569 20.1084 41.8712 17.4013C44.4882 13.8236 47.3768 10.453 50.5113 7.31989C57.5669 0.191128 69.607 -1.57614 78.1099 3.64665C89.2623 10.4948 95.7438 20.7795 97.0176 33.7597C97.7743 41.4639 94.3475 48.029 88.2324 52.9277C82.1679 57.7863 75.0307 59.4221 67.1996 59.5951ZM66.1905 49.7722C70.8983 49.6536 75.4748 49.0888 79.5761 46.5606C85.1558 43.122 87.4084 37.4636 85.7332 31.1443C84.4263 26.2047 81.7387 22.0557 78.2828 18.3908C74.8398 14.7396 70.8116 12.273 65.5704 12.1142C59.7994 11.9393 55.4322 15.0403 51.4118 18.4181C48.4672 20.893 46.6825 24.4827 45.4811 28.2473C42.8168 36.5951 45.7316 43.3844 53.6546 47.1711C57.629 49.0744 61.8824 49.5914 66.1905 49.7716V49.7722Z" fill="black"/>
<path d="M120.589 117.762C116.277 117.762 111.965 117.805 107.655 117.736C106.334 117.69 105.023 117.5 103.743 117.172C103.191 117.069 102.695 116.769 102.345 116.329C101.996 115.888 101.818 115.336 101.845 114.774C101.781 114.218 101.91 113.657 102.209 113.184C102.509 112.712 102.961 112.357 103.49 112.177C104.196 111.867 104.944 111.663 105.71 111.573C115.31 111.075 124.912 110.606 134.515 110.165C135.067 110.138 135.621 110.182 136.163 110.294C136.984 110.445 137.726 110.882 138.258 111.526C138.789 112.171 139.077 112.982 139.071 113.818C139.03 114.601 138.714 115.345 138.18 115.92C137.645 116.493 136.926 116.861 136.148 116.957C133.518 117.264 130.861 117.399 128.212 117.487C125.673 117.572 123.129 117.505 120.587 117.505L120.589 117.762Z" fill="black"/>
</g>
<defs>
<clipPath id="clip0">
<rect width="156" height="151" fill="white" transform="translate(0.777344)"/>
</clipPath>
</defs>
</svg>

<svg xmlns="http://www.w3.org/2000/svg" width="157" height="151" fill="none" viewBox="0 0 157 151"><g fill="#000" clip-path="url(#a)"><path d="M111.851 80.037c4.25-.223 8.252-.945 12.141-.548 17.572 1.795 30.696 15.23 32.481 32.838 1.607 15.847-6.275 28.886-21.096 34.649-11.042 4.294-22.18 4.974-33.31.267-7.733-3.271-13.74-8.407-17.177-16.25-.172-.389-.414-.752-.67-1.213-3.257.175-6.448.354-9.64.518-17.579.896-35.155 1.847-52.739 2.643-4.748.215-9.518-.016-14.277-.112a12 12 0 0 1-3.253-.541c-3.118-.961-4.153-3.118-3.06-6.165a109.3 109.3 0 0 1 21.27-36.12C33.93 77.17 47.853 69.078 65.112 67.307c11.807-1.212 23.147.773 34.048 5.379a62 62 0 0 1 6.914 3.198 66 66 0 0 1 5.776 4.153m-8.756 4.616c-9.201-4.136-18.098-7.546-27.95-8-13.707-.634-26.11 2.819-36.946 11.27-11.644 9.084-20.174 20.751-27.071 33.694a16 16 0 0 0-.76 2.045c6.256.567 68.568-3.688 72.503-4.941.098-.461.245-.988.317-1.523a54.1 54.1 0 0 1 6.416-18.748 23 23 0 0 1 4.065-5.19c2.897-2.854 6-5.504 9.426-8.607m15.367 54.238a37.2 37.2 0 0 0 15.427-3.459 19.4 19.4 0 0 0 8.799-7.823c4.758-8.045 3.843-21.056-2.179-28.208-4.798-5.699-10.793-9.635-18.357-10.258-8.775-.723-16.232 2.385-21.3 9.66-5.077 7.287-6.301 15.723-5.368 24.446a14.12 14.12 0 0 0 4.972 9.138c5.133 4.57 11.234 6.466 18.006 6.504M67.2 59.595c-7.526-.309-14.896-1.872-21.375-6.475-7.319-5.199-13.096-14.872-8.56-26.95a37.7 37.7 0 0 1 4.605-8.77 86 86 0 0 1 8.64-10.081C57.567.19 69.607-1.576 78.11 3.647c11.152 6.848 17.634 17.132 18.908 30.113.756 7.704-2.67 14.269-8.786 19.168-6.064 4.858-13.201 6.494-21.032 6.667m-1.01-9.823c4.708-.118 9.285-.683 13.386-3.211 5.58-3.439 7.832-9.097 6.157-15.417-1.307-4.94-3.994-9.088-7.45-12.753-3.443-3.651-7.471-6.118-12.713-6.277-5.77-.175-10.138 2.926-14.158 6.304-2.945 2.475-4.73 6.065-5.93 9.83-2.665 8.347.25 15.136 8.173 18.923 3.974 1.903 8.227 2.42 12.535 2.6z"/><path d="M120.589 117.762c-4.312 0-8.624.043-12.934-.026a18.3 18.3 0 0 1-3.912-.564 2.326 2.326 0 0 1-1.898-2.398 2.45 2.45 0 0 1 1.645-2.597 7.8 7.8 0 0 1 2.22-.604q14.4-.747 28.805-1.408a6.6 6.6 0 0 1 1.648.129 3.55 3.55 0 0 1 2.908 3.524 3.34 3.34 0 0 1-2.923 3.139c-2.63.307-5.287.442-7.936.53-2.539.085-5.083.018-7.625.018z"/></g><defs><clipPath id="a"><path fill="#fff" d="M.777 0h156v151h-156z"/></clipPath></defs></svg>
